X: 38010
T: Speed The Traktor
R: reel
M: 4/4
K: Amajor
M:7/8
|:A2 Ac ef c|ef ec fe c|d2 fd ce c|BA Bc dc B|
A2 Ac ef c|ef ec fe c|d2 fd ce c|BA Bc A2 c:|
|:ag ae ae c|ag ae ae c|d2 fd ce c|BA Bc d2 e|
ag ae ae c|ag ae ae c|d2 fd ce c|BA Bc A2 c:|

